img/icons/corp/3.svg

<svg width="78" height="54" viewBox="0 0 78 54" fill="none" xmlns="http://www.w3.org/2000/svg">
<path d="M70.7776 22.8822C70.9793 21.9941 71.0934 20.9857 71.0934 19.839H50.1404L60.2667 12.9809C60.2667 12.9809 62.5353 10.4337 62.2812 10.0502L59.5601 11.8421C59.2732 11.4012 62.2742 10.0297 62.2742 10.0297C62.0193 9.64779 58.7995 10.7442 58.7995 10.7442L47.8922 17.838C50.3859 14.2274 54.8299 8.47988 58.9433 6.65808L58.9183 6.63293C58.4735 6.17866 54.5251 6.89622 54.5251 6.89622L46.4859 14.8326L50.5852 4.63351C50.5852 4.63351 49.1969 3.87901 51.0949 1.26971L51.0668 1.25556C50.4664 1.0127 47.1176 3.2259 47.1176 3.2259L43.0034 13.0729V3.59058C43.0034 3.59058 41.7894 0.273926 41.1508 0.273926H41.1156C40.4769 0.273926 39.2629 3.59058 39.2629 3.59058V15.5329C32.8466 15.5329 17.8816 15.5329 17.8816 15.5329C17.8816 15.5329 12.1243 15.5329 12.1243 23.6068C12.1243 25.5017 12.7481 26.7773 13.5845 27.6363L13.5837 27.9011L11.5497 29.9446C11.5497 29.9446 -1.90903 43.4784 0.23051 45.6303L0.274286 45.6657C2.4107 47.8168 15.8647 34.2892 15.8647 34.2892L18.3013 31.8395L18.546 31.856C18.546 39.9456 18.546 49.6621 18.546 49.6794C18.546 50.3946 19.0956 53.4401 23.6326 53.4401C23.5576 52.9788 22.1184 53.2924 22.1184 50.0763C22.1184 49.3879 23.6396 49.3588 23.6396 47.9834C23.6396 47.2179 22.1184 46.6772 22.1184 45.9478C22.1184 44.919 23.6396 45.1108 23.6396 43.8832C23.6396 42.5557 22.1184 42.6092 22.1184 41.8122C22.1184 40.2529 23.6396 41.0679 23.6396 39.632C23.6396 38.4696 22.1184 38.9318 22.1184 37.6758C22.1184 36.8608 23.6396 36.6258 23.6396 35.5868C23.6396 34.6846 22.1184 34.4213 22.1184 33.5402C22.1184 32.4211 23.6396 32.5012 23.6396 31.4552C23.6396 31.3239 23.6162 31.2107 23.5748 31.1109L23.9601 31.0771C30.0716 37.2208 38.0919 45.2853 38.099 45.2963C41.1218 48.3316 44.1056 43.7912 40.6122 40.2686C40.0446 39.7067 38.5336 40.4353 37.995 39.8937C37.2524 39.1392 38.5086 38.1537 37.6073 37.2514C36.627 36.2627 35.5467 37.4322 34.962 36.8412C33.8199 35.6929 35.5357 35.1734 34.4804 34.1124C33.633 33.2526 32.8466 34.7144 31.9281 33.7941C31.3278 33.1921 32.2697 31.8921 31.5084 31.1243C30.8509 30.4594 29.5408 31.3915 28.8943 30.7423C28.5644 30.4099 28.5582 30.0381 28.6184 29.6616L28.8466 29.4062H63.1192C63.1192 29.4062 64.1854 29.4062 65.5394 28.9386L65.7145 28.8749C66.0061 31.0331 68.1308 33.5395 68.6693 32.994C69.3049 32.3582 68.7592 31.7271 68.7592 31.7271C68.2496 31.2249 67.4991 29.7033 68.4645 28.7287C69.43 27.7613 71.1098 26.9997 72.8726 28.7751C75.299 31.2257 72.6107 33.1465 72.6107 33.1465L73.5011 37.9328L76.9016 34.514C79.8838 31.5149 75.8486 28.144 75.8486 28.144L70.7471 23.0126L70.7776 22.8822Z" fill="black"/>
</svg>

<svg width="78" height="54" fill="none" xmlns="http://www.w3.org/2000/svg"><path d="M70.778 22.882c.201-.888.315-1.896.315-3.043H50.14l10.127-6.858s2.268-2.547 2.014-2.93l-2.72 1.791c-.288-.44 2.713-1.812 2.713-1.812-.255-.382-3.474.714-3.474.714l-10.908 7.094c2.494-3.61 6.938-9.358 11.051-11.18l-.025-.025c-.444-.454-4.393.263-4.393.263l-8.04 7.937 4.1-10.2s-1.388-.754.51-3.363l-.028-.014c-.6-.243-3.95 1.97-3.95 1.97l-4.114 9.847V3.59S41.79.274 41.151.274h-.035c-.64 0-1.853 3.317-1.853 3.317v11.942H17.882s-5.758 0-5.758 8.074c0 1.895.624 3.17 1.46 4.03v.264l-2.034 2.044S-1.91 43.478.23 45.63l.044.036c2.137 2.15 15.59-11.377 15.59-11.377l2.437-2.45.245.017v17.823c0 .716.55 3.761 5.087 3.761-.075-.461-1.515-.148-1.515-3.364 0-.688 1.522-.717 1.522-2.093 0-.765-1.522-1.306-1.522-2.035 0-1.029 1.522-.837 1.522-2.065 0-1.327-1.522-1.274-1.522-2.07 0-1.56 1.522-.745 1.522-2.181 0-1.162-1.522-.7-1.522-1.956 0-.815 1.522-1.05 1.522-2.09 0-.901-1.522-1.165-1.522-2.046 0-1.119 1.522-1.039 1.522-2.085a.886.886 0 0 0-.065-.344l.385-.034c6.112 6.144 14.132 14.208 14.139 14.22 3.023 3.035 6.007-1.506 2.513-5.028-.567-.562-2.078.166-2.617-.375-.743-.755.514-1.74-.388-2.643-.98-.988-2.06.181-2.645-.41-1.142-1.148.574-1.668-.482-2.729-.847-.86-1.633.602-2.552-.318-.6-.602.342-1.902-.42-2.67-.657-.665-1.967.268-2.614-.382-.33-.332-.336-.704-.276-1.08l.229-.256h34.272s1.066 0 2.42-.467l.175-.064c.292 2.158 2.417 4.664 2.955 4.119.636-.636.09-1.267.09-1.267-.51-.502-1.26-2.024-.294-2.998.965-.968 2.645-1.73 4.408.046 2.426 2.45-.262 4.372-.262 4.372l.89 4.786 3.4-3.419c2.983-3-1.052-6.37-1.052-6.37l-5.102-5.131.03-.13z" fill="#000"/></svg>
